X:28
T:PORTIA'S SMILE/Belladrum House #1
M:4/4
L:1/8
Q:126
S:8 X 32 STRATHSPEY 1,2,3,4,  2,3,4,1
R:STRATHSPEY
B:Fraser p.64
D:Ron Gonella on Fiddle Gems tape
Z:John Chambers <jc@trillian.mit.edu> http://trillian.mit.edu/~jc/music/
K:D
|:"A7" A,  | "D"DE/F/ "G"G>B "D"A-<F F>B | "D" A-<F FE/D/ "A7"E2- E>F |"D"DE/F/"G"G>B "D/F#"A-<F F>B | "Em" A<F "A" F>E "D"D3 A, |!
| "D"DE/F/ "Em"G>B "D/F#"A-<F F>B | "G" A-<F FE/D/ "A"E2- E>"A#"F | "Bm"DE/F/ "Em"G>B "D/F#"A-<F "E/G#"F>B | "D/A"A-<F "A" F>E "D"D3 |!
f \
| "A"e>A f>A "/E"g>A f>A | "A" e>A g>f "/E" e2- e>f | "A" e>A f>A "G/B"g>A "A/C#" f>A | "D" (3fga "A" (3gfe "D"d>A F>A |!
|  "D"d>f A-<f"/C#" d>f A-<f | "Bm" d>f A-<f "A7"e2- e>g \
| "D"(3fga "A/C#"(3gfe "Bm"(3dcB "/A"(3AGF | "G"G>B "A7"A-<F "D"D3 :||
